X:1741
T:Bonny Ann
S:Charlie Menzies
R:Reel
O:Scotland
M:2/4
K:Hp
e2|\
A2a2 a3f | efed c2BA | G2g2 g3e | dedc B2AG |\
A2a2 a3f | efed c2e2 | dcBA GABd | c2A2 A2 :|
|: e2 |\
edcB ABcd | e2A2 c4 | dcBA GABc | d2G2 B2cd |\
edcB ABcd | e2a2 c2e2 | dcBA GABd | c2A2A2 :|


